epam-assets/icon-sources/18/editor-format_underlined.svg

<svg width="18" height="18" viewBox="0 0 18 18" fill="none" xmlns="http://www.w3.org/2000/svg">
<g id="18/editor-format_underlined">
<path id="icon" fill-rule="evenodd" clip-rule="evenodd" d="M9 12.75C11.4825 12.75 13.5 10.7325 13.5 8.25V2.25H11.625V8.25C11.625 9.6975 10.4475 10.875 9 10.875C7.5525 10.875 6.375 9.6975 6.375 8.25V2.25H4.5V8.25C4.5 10.7325 6.5175 12.75 9 12.75ZM3.75 14.25V15.75H14.25V14.25H3.75Z" fill="#6C6F80"/>
</g>
</svg>

<svg xmlns="http://www.w3.org/2000/svg" width="18" height="18" fill="none" viewBox="0 0 18 18">
  <path fill="#6C6F80" fill-rule="evenodd" d="M9 12.75c2.482 0 4.5-2.018 4.5-4.5v-6h-1.875v6A2.628 2.628 0 0 1 9 10.875 2.628 2.628 0 0 1 6.375 8.25v-6H4.5v6c0 2.482 2.018 4.5 4.5 4.5Zm-5.25 1.5v1.5h10.5v-1.5H3.75Z" clip-rule="evenodd"/>
</svg>
